X:1
T:F Major            Daniel Read, 1793
T:Isaac Watts, 1707 (Hymn 14, Book 1)               88. 88. (L. M.) 
T:Triumph
T:Transcribed from The Columbian Harmonist, 1793.
%%score [ 1 2 3 4 ]
L:1/8
Q:1/4=100
M:2/4
K:F
V:1 treble nm="Tr." snm="Tr."
V:2 treble nm="C." snm="C."
V:3 treble-8 nm="T." snm="T."
V:4 bass nm="B." snm="B."
V:1
 F2 | c3 B/d/ | cB AG | A2 G2 | F3 E | F2 d2 | cA fd | cA c>d | c3 c | f2 c2 | AF dc | BA AF | %12
w: ||||||||||||
w: ||||||||||||
w: ||||||||||||
 G2 AF | Ac G2 | A3 B | c2 c2 | (fcAF | c4) | z4 | z2 c2 | A2 GF | G3 A/B/ | c4- | c2 cB | A4 | %25
w: ||||rolls.~ _ _ _|_||||||||
w: ||||–pair?~ _ _ _|_||||||||
w: ||||prop.~ _ _ _|_||||||||
 z4 | A2 A>B | c3 d | c2 c2 | c3 c | c2 c2 | f2 c2 | A2 A2 | c3 c | d2 d2 | cA AF | c2 c2 | c3 z | %38
w: |||||||||||||
w: |||||||||||||
w: |||||||||||||
 z2 z c | cA FA | Bc dB | A2 G2 | F3 f | ge cB | A2 d2 | c2 c2 | c4 |] %47
w: Be-|hold~ _ _ _|_ _ _ _|||||||
w: And|makes~ _ _ _|_ _ _ _|||||||
w: Or|wean~ _ _ _|_ _ _ _|||||||
V:2
 F2 | F3 F | F3 F | F2 G2 | A3 A | A2 A2 | A2 AG | F2 F2 | E3 F | A2 A2 | A2 GA | GF GA | G2 F2 | %13
w: 1.~Who|shall the|Lord's e-|lect con-|demn? Tis|God that|jus- ti- *|fies their|souls; And|mer- cy,|like a *|migh- * ty *|stream, O'er|
w: 2.~He|lives! he|lives and|sits a-|bove, For-|ev- er|in- ter- *|ce- ding|there: Who|shall di-|vide us *|from * his *|love? Or|
w: 3.~Faith|hath an|o- ver-|co- ming|power; It|tri- umphs|in the *|dy- ing|hour: Christ|is our|life, our *|joy, * our *|hope, Nor|
 E2 E2 | F3 G | A2 A2 | A4 | z4 | z4 | z2 F2 | C2 EF | E3 F | F4- | F2 E2 | F4 | z4 | F2 F>F | %27
w: all their|sins di-|vine- ly|rolls.|||O'er|all their *|sins di-|vine-|* ly|rolls.||Who shall ad-|
w: what should|tempt us|to des-|pair?|||Or|what should *|tempt us|to~|_ des-|pair?||Shall per- ce-|
w: can we|sink with|such a|prop.|||Nor|can we *|sink with|such~|_ a|prop.||Not all that|
 F3 F | F2 E2 | F3 G | A2 A2 | A2 AF | E2 F2 | G3 F | A2 A2 | A2 F2 | CE G2 | E3 E | F4- | F3 F | %40
w: judge the|saints to|hell? Tis|Christ that|suf- fered *|in their|stead, And,|the sal-|va- tion|to * ful-|fill, Be-|hold~|_ him|
w: cu- tion,|or dis-|tress, Fa-|mine, or|sword, or *|na- ked-|ness? He|that hath|loved us|bears * us|through, And|makes~|_ us|
w: men on|earth cam|do, Nor|pow'rs on|high, nor *|pow'rs be-|low, Shall|cause his|mer- cy|to * re-|move, Or|wean~|_ our|
 F3 F | G2 G2 | C3 C | C2 G2 | F2 F2 | F2 [EG]2 | [FA]4 |] %47
w: ri- sing|from the|dead! Be-|hold him|ri- sing|from the|dead!|
w: more that|con- querors|too. And|makes us|more than|con- querors|too.|
w: hearts from|Christ our|love. Or|wean our|hearts from|Christ our|love.|
V:3
 F2 | A3 B | c3 c | c2 cd | c3 c | f2 f2 | fd cA | c>d cA | G3 z | z4 | z4 | z4 | z2 fd | cA c>d | %14
w: ||||||||||||||
w: ||||||||||||||
w: ||||||||||||||
 c3 d/e/ | f2 f2 | (f4 | fc AF | c4- | c2) AF | Ac c>d | c3 d/e/ | (fcAF | A2) G2 | F4 | z4 | %26
w: ||rolls.~|_ _ _ _|||||||||
w: ||–pair?~|_ _ _ _|||||||||
w: ||prop.~|_ _ _ _|||||||||
 c2 c>c | c3 B | A2 G2 | F3 c | f2 fa | fd cA | c>d cA | G3 A | F2 F2 | FA cA | G2 G2 | G3 z | %38
w: ||||||||||||
w: ||||||||||||
w: ||||||||||||
 z2 z F | c3 c | de fd | c2 B2 | A3 f | eg ce | f2 (3dcB | A2 G2 | F4 |] %47
w: Be-|hold~ *||||||||
w: And|makes *||||||||
w: Or|wean *||||||||
V:4
 F,2 | F,3 G, | A,3 B, | C2 C,2 | F,3 G, | A,2 B,2 | A,2 A,2 | A,G, F,2 | C,3 z | z4 | z4 | z4 | %12
w: ||||||||||||
w: ||||||||||||
w: ||||||||||||
 z2 D2 | C2 CB, | A,3 G, | F,2 F,2 | F,4- | F,4- | F,4- | F,2 F,A, | F,C, C,A,, | C,3 F, | F,4- | %23
w: |||||||||||
w: |||||||||||
w: |||||||||||
 F,2 C,2 | F,,4 | z4 | F,2 F,>F, | F,3 B, | C2 C,2 | F,3 F, | F,2 A,2 | B,2 A,2 | A,G, F,2 | %33
w: ||||||||||
w: ||||||||||
w: ||||||||||
 C,3 A,, | D,2 D,2 | F,2 F,A, | C,2 C,2 | C,3 C, | F,4- | F,3 F, | B,3 B,, | C,2 C,2 | F,3 F, | %43
w: ||||* Be-|hold~|_ _||||
w: ||||* And|makes~|_ _||||
w: ||||* Or|wean~|_ _||||
 C2 C,2 | F,2 B,2 | C2 C,2 | F,4 |] %47
w: ||||
w: ||||
w: ||||

